X: 6
T: Roll the Woodpile Down
P: piffero primo b0034
O: safd 072
%R: hornpipe, reel
F: http://ancients.sudburymuster.org/mus/ssp/pdf/seamedF.pdf
Z: 2019 John Chambers <jc:trillian.mit.edu>
M: 2/4
L: 1/16
K: G
z2 \
| D2EF G2AB | c2B2 A4   | A2 A4 B2 | AG E4 D2 \
| D2EF G2AB | c2B2 A2GA | B3G E2D2 | G6 :|
|: e2 \
| d6   e2   | d6     g2 | ed2B G2A2 | E6 E2 \
| D2EE G2AB | c2B2 A2GA | B3E  E2D2 | G6 :|

% %sep 1 1 200
% %center - - - - - - - - - -
% Whatever we want at the bottom of each set belongs here.
